FINK
CUT[DAS LAUB FAELLT VON DEN BAEUMEN]
REG[Europa, Mitteleuropa, Deutschland]
KEY[F1116  16  F 6/8]
MEL[-5_  3__3_3_4_5_  5__4_0__
    4_  3__+1_+1_5_3_  2__.0__
    -5_  2_2_2#_3__3_  5__4_0__
    4_  3__3_4__5_  6__7_+1_0_
    6_  5_3_1_2_.32_  1__0__. //] >>
FCT[Natur -, Jahreszeiten - Lied, Herbst]
